icons/secret.svg

<svg xmlns="http://www.w3.org/2000/svg" viewBox="0 0 24 24"><path fill="#bdbdbd" d="M17.06 13c-1.86 0-3.42 1.33-3.82 3.1-.95-.41-1.82-.3-2.48-.01C10.35 14.31 8.79 13 6.94 13 4.77 13 3 14.79 3 17s1.77 4 3.94 4c2.06 0 3.74-1.62 3.9-3.68.34-.24 1.23-.69 2.32.02.18 2.05 1.84 3.66 3.9 3.66 2.17 0 3.94-1.79 3.94-4s-1.77-4-3.94-4M6.94 19.86c-1.56 0-2.81-1.28-2.81-2.86s1.26-2.86 2.81-2.86c1.56 0 2.81 1.28 2.81 2.86s-1.25 2.86-2.81 2.86m10.12 0c-1.56 0-2.81-1.28-2.81-2.86s1.25-2.86 2.81-2.86 2.82 1.28 2.82 2.86-1.27 2.86-2.82 2.86M22 10.5H2V12h20zm-6.47-7.87c-.22-.49-.78-.75-1.31-.58L12 2.79l-2.23-.74-.05-.01c-.53-.15-1.09.13-1.29.64L6 9h12l-2.44-6.32z" data-iconColor="Secrets"/></svg>

<!--
  - The MIT License (MIT)
  -
  - Copyright (c) 2015-2024 Elior "Mallowigi" Boukhobza
  -
  - Permission is hereby granted, free of charge, to any person obtaining a copy
  - of this software and associated documentation files (the "Software"), to deal
  - in the Software without restriction, including without limitation the rights
  - to use, copy, modify, merge, publish, distribute, sublicense, and/or sell
  - copies of the Software, and to permit persons to whom the Software is
  - furnished to do so, subject to the following conditions:
  -
  - The above copyright notice and this permission notice shall be included in all
  - copies or substantial portions of the Software.
  -
  - THE SOFTWARE IS PROVIDED "AS IS", WITHOUT WARRANTY OF ANY KIND, EXPRESS OR
  - IMPLIED, INCLUDING BUT NOT LIMITED TO THE WARRANTIES OF MERCHANTABILITY,
  - FITNESS FOR A PARTICULAR PURPOSE AND NONINFRINGEMENT. IN NO EVENT SHALL THE
  - AUTHORS OR COPYRIGHT HOLDERS BE LIABLE FOR ANY CLAIM, DAMAGES OR OTHER
  - LIABILITY, WHETHER IN AN ACTION OF CONTRACT, TORT OR OTHERWISE, ARISING FROM,
  - OUT OF OR IN CONNECTION WITH THE SOFTWARE OR THE USE OR OTHER DEALINGS IN THE
  - SOFTWARE.
  -
  -->

<svg  xmlns="http://www.w3.org/2000/svg" version="1.1" viewBox="0 0 24 24" width="16px" height="16px">
  <path fill="#BDBDBD" data-iconColor="Secrets"
        d="M17.06 13C15.2 13 13.64 14.33 13.24 16.1C12.29 15.69 11.42 15.8 10.76 16.09C10.35 14.31 8.79 13 6.94 13C4.77 13 3 14.79 3 17C3 19.21 4.77 21 6.94 21C9 21 10.68 19.38 10.84 17.32C11.18 17.08 12.07 16.63 13.16 17.34C13.34 19.39 15 21 17.06 21C19.23 21 21 19.21 21 17C21 14.79 19.23 13 17.06 13M6.94 19.86C5.38 19.86 4.13 18.58 4.13 17S5.39 14.14 6.94 14.14C8.5 14.14 9.75 15.42 9.75 17S8.5 19.86 6.94 19.86M17.06 19.86C15.5 19.86 14.25 18.58 14.25 17S15.5 14.14 17.06 14.14C18.62 14.14 19.88 15.42 19.88 17S18.61 19.86 17.06 19.86M22 10.5H2V12H22V10.5M15.53 2.63C15.31 2.14 14.75 1.88 14.22 2.05L12 2.79L9.77 2.05L9.72 2.04C9.19 1.89 8.63 2.17 8.43 2.68L6 9H18L15.56 2.68L15.53 2.63Z"/>
</svg>
